X:1
T:Partition sans titre
C:Compositeur / Arrangeur
L:1/8
M:4/4
I:linebreak $
K:D
V:1 treble nm="Violon" snm="Vln."
V:1
"D" D2 FA d2 fa |"G" gfed"A" cABG | AAFA"D" d2 fa |"G" gfeg"D" fddB |:"D" AAFA d2 fa | %5
"G" gfed"A" cABG | AAFA"D" d2 fa |"G" gfeg"D" fddB :|"D" AAFA dBAG | FDEF"G" GEEE |"D" D2 FA dBAG | %11
 FDEG FDDD |:"D" D2 FA dBAG | FDEF"G" GEEE |"D" D2 FA dBAG | FDEG FDDD :| %16
